src/assets/img/partner/github_logo.svg

<?xml version="1.0" encoding="UTF-8"?>
<svg width="123px" height="34px" viewBox="0 0 123 34" version="1.1" xmlns="http://www.w3.org/2000/svg" xmlns:xlink="http://www.w3.org/1999/xlink">
    <!-- Generator: Sketch 63.1 (92452) - https://sketch.com -->
    <title>Group 17</title>
    <desc>Created with Sketch.</desc>
    <defs>
        <polygon id="path-1" points="0 0.201960002 24.0675463 0.201960002 24.0675463 33.3199664 0 33.3199664"></polygon>
        <polygon id="path-3" points="0.102884001 0.0416160004 20.4622202 0.0416160004 20.4622202 31.9271563 0.102884001 31.9271563"></polygon>
    </defs>
    <g id="Visual-design" stroke="none" stroke-width="1" fill="none" fill-rule="evenodd">
        <g id="01-Corona_lp" transform="translate(-418.000000, -5491.000000)">
            <g id="Group-17" transform="translate(418.000000, 5491.000000)">
                <g id="Group-3" transform="translate(0.000000, 0.137972)">
                    <mask id="mask-2" fill="white">
                        <use xlink:href="#path-1"></use>
                    </mask>
                    <g id="Clip-2"></g>
                    <path d="M23.5867862,14.3768662 L13.2956661,14.3768662 C13.0304661,14.3768662 12.8149061,14.5924262 12.8149061,14.8579662 L12.8149061,19.8892862 C12.8149061,20.1548262 13.0304661,20.3707262 13.2956661,20.3707262 L17.3103862,20.3707262 L17.3103862,26.6219663 C17.3103862,26.6219663 16.4090462,26.9289863 13.9171861,26.9289863 C10.9768661,26.9289863 6.86966607,25.8549263 6.86966607,16.8231662 C6.86966607,7.78970608 11.1465261,6.60106607 15.1615862,6.60106607 C18.6370662,6.60106607 20.1347662,7.21306608 21.0871062,7.50784608 C21.3866462,7.59930608 21.6634062,7.30146608 21.6634062,7.03592607 L22.8115862,2.17460602 C22.8115862,2.05016602 22.7694262,1.90056602 22.6279862,1.79890602 C22.2407262,1.52282602 19.8804462,0.201926002 13.9171861,0.201926002 C7.04680607,0.201926002 -3.40000004e-05,3.12490603 -3.40000004e-05,17.1754062 C-3.40000004e-05,31.2262463 8.06816608,33.3199664 14.8671462,33.3199664 C20.4965262,33.3199664 23.9114863,30.9144663 23.9114863,30.9144663 C24.0522463,30.8369463 24.0675463,30.6400863 24.0675463,30.5499863 L24.0675463,14.8579662 C24.0675463,14.5924262 23.8523263,14.3768662 23.5867862,14.3768662" id="Fill-1" fill="#100F0F" mask="url(#mask-2)"></path>
                </g>
                <path d="M76.6211088,2.02347602 C76.6211088,1.75589602 76.4089488,1.53965602 76.1434088,1.53965602 L70.3491287,1.53965602 C70.0842687,1.53965602 69.8693887,1.75589602 69.8693887,2.02347602 C69.8693887,2.02483602 69.8707487,13.2213761 69.8707487,13.2213761 L60.8389886,13.2213761 L60.8389886,2.02347602 C60.8389886,1.75589602 60.6258086,1.53965602 60.3609486,1.53965602 L54.5666686,1.53965602 C54.3031686,1.53965602 54.0882886,1.75589602 54.0882886,2.02347602 L54.0882886,32.3439963 C54.0882886,32.6112363 54.3031686,32.8291763 54.5666686,32.8291763 L60.3609486,32.8291763 C60.6258086,32.8291763 60.8389886,32.6112363 60.8389886,32.3439963 L60.8389886,19.3746962 L69.8707487,19.3746962 C69.8707487,19.3746962 69.8551087,32.3429763 69.8551087,32.3439963 C69.8551087,32.6112363 70.0699887,32.8291763 70.3351887,32.8291763 L76.1430688,32.8291763 C76.4082688,32.8291763 76.6204288,32.6112363 76.6211088,32.3439963 L76.6211088,2.02347602 Z" id="Fill-4" fill="#100F0F"></path>
                <path d="M34.5208804,6.00222406 C34.5208804,3.91564404 32.8480803,2.22992402 30.7842803,2.22992402 C28.7225203,2.22992402 27.0487003,3.91564404 27.0487003,6.00222406 C27.0487003,8.08642409 28.7225203,9.7772441 30.7842803,9.7772441 C32.8480803,9.7772441 34.5208804,8.08642409 34.5208804,6.00222406" id="Fill-6" fill="#100F0F"></path>
                <path d="M34.1065224,25.9478483 L34.1065224,11.9517481 C34.1065224,11.6862081 33.8923224,11.4689481 33.6271224,11.4689481 L27.8512023,11.4689481 C27.5860023,11.4689481 27.3490223,11.7423081 27.3490223,12.0078481 L27.3490223,32.0600283 C27.3490223,32.6492483 27.7162223,32.8246883 28.1915423,32.8246883 L33.3955824,32.8246883 C33.9664424,32.8246883 34.1065224,32.5441883 34.1065224,32.0505083 L34.1065224,25.9478483 Z" id="Fill-8" fill="#100F0F"></path>
                <path d="M98.642093,11.5146101 L92.892353,11.5146101 C92.628513,11.5146101 92.413973,11.7318701 92.413973,11.9994501 L92.413973,26.8662903 C92.413973,26.8662903 90.952993,27.9352503 88.8796729,27.9352503 C86.8063529,27.9352503 86.2562329,26.9944703 86.2562329,24.9643303 L86.2562329,11.9994501 C86.2562329,11.7318701 86.0420329,11.5146101 85.7781929,11.5146101 L79.9424328,11.5146101 C79.6792728,11.5146101 79.4633728,11.7318701 79.4633728,11.9994501 L79.4633728,25.9459103 C79.4633728,31.9758103 82.8239329,33.4510704 87.4469129,33.4510704 C91.239953,33.4510704 94.297913,31.3556503 94.297913,31.3556503 C94.297913,31.3556503 94.443093,32.4599703 94.509393,32.5908703 C94.575013,32.7214303 94.746713,32.8533503 94.932353,32.8533503 L98.644813,32.8370303 C98.907973,32.8370303 99.123873,32.6194303 99.123873,32.3528703 L99.121833,11.9994501 C99.121833,11.7318701 98.906953,11.5146101 98.642093,11.5146101" id="Fill-10" fill="#100F0F"></path>
                <g id="Group-14" transform="translate(102.000001, 1.497972)">
                    <mask id="mask-4" fill="white">
                        <use xlink:href="#path-3"></use>
                    </mask>
                    <g id="Clip-13"></g>
                    <path d="M10.0897041,26.4188163 C8.09526409,26.3579563 6.74240407,25.4532163 6.74240407,25.4532163 L6.74240407,15.8512762 C6.74240407,15.8512762 8.07690408,15.0332362 9.7143441,14.8870362 C11.7849441,14.7017362 13.7800641,15.3269962 13.7800641,20.2665162 C13.7800641,25.4749763 12.8797441,26.5031363 10.0897041,26.4188163 M12.3575041,9.3355161 C9.0918041,9.3355161 6.87058407,10.7927561 6.87058407,10.7927561 L6.87058407,0.525436006 C6.87058407,0.257856003 6.65638407,0.0416160004 6.39254407,0.0416160004 L0.581604006,0.0416160004 C0.317424003,0.0416160004 0.102884001,0.257856003 0.102884001,0.525436006 L0.102884001,30.8459563 C0.102884001,31.1135363 0.317424003,31.3311363 0.582624006,31.3311363 L4.61400405,31.3311363 C4.79556405,31.3311363 4.93292405,31.2372963 5.03458405,31.0734163 C5.13488405,30.9105563 5.27938406,29.6756763 5.27938406,29.6756763 C5.27938406,29.6756763 7.65530408,31.9271563 12.1531641,31.9271563 C17.4340442,31.9271563 20.4624242,29.2486363 20.4624242,19.9027162 C20.4624242,10.5567961 15.6255842,9.3355161 12.3575041,9.3355161" id="Fill-12" fill="#100F0F" mask="url(#mask-4)"></path>
                </g>
                <path d="M50.7597225,11.4662961 L46.4131625,11.4662961 C46.4131625,11.4662961 46.4067025,5.72539606 46.4067025,5.72403606 C46.4067025,5.50677606 46.2948425,5.39797606 46.0432425,5.39797606 L40.1204424,5.39797606 C39.8902624,5.39797606 39.7665024,5.49963606 39.7665024,5.72097606 L39.7665024,11.6546561 C39.7665024,11.6546561 36.7983024,12.3710361 36.5973624,12.4291761 C36.3977824,12.4869761 36.2505624,12.6712561 36.2505624,12.8912361 L36.2505624,16.6200162 C36.2505624,16.8879362 36.4647624,17.1045162 36.7296224,17.1045162 L39.7665024,17.1045162 L39.7665024,26.0750763 C39.7665024,32.7377163 44.4404825,33.3922164 47.5939825,33.3922164 C49.0349025,33.3922164 50.7587025,32.9294763 51.0432825,32.8244163 C51.2153225,32.7611763 51.3156225,32.5830163 51.3156225,32.3898963 L51.3200425,28.2877963 C51.3200425,28.0202163 51.0942825,27.8036363 50.8399625,27.8036363 C50.5866625,27.8036363 49.9386225,27.9069963 49.2715425,27.9069963 C47.1366825,27.9069963 46.4131625,26.9141963 46.4131625,25.6289963 C46.4131625,24.3451563 46.4128225,17.1045162 46.4128225,17.1045162 L50.7597225,17.1045162 C51.0245825,17.1045162 51.2394625,16.8879362 51.2394625,16.6200162 L51.2394625,11.9494361 C51.2394625,11.6818561 51.0245825,11.4662961 50.7597225,11.4662961" id="Fill-15" fill="#100F0F"></path>
            </g>
        </g>
    </g>
</svg>

<?xml version="1.0" encoding="UTF-8"?>
<svg version="1.1" viewBox="0 0 123 34" 
    xmlns="http://www.w3.org/2000/svg" 
    xmlns:xlink="http://www.w3.org/1999/xlink">
    <title>Group 17</title>
    <desc>Created with Sketch.</desc>
    <defs>
        <polygon id="b" points="0 0.20196 24.068 0.20196 24.068 33.32 0 33.32"/>
        <polygon id="a" points="0.10288 0.041616 20.462 0.041616 20.462 31.927 0.10288 31.927"/>
    </defs>
    <g fill="none" fill-rule="evenodd">
        <g transform="translate(-418 -5491)">
            <g transform="translate(418 5491)">
                <g transform="translate(0 .13797)">
                    <mask id="d" fill="white">
                        <use xlink:href="#b"/>
                    </mask>
                    <path d="m23.587 14.377h-10.291c-0.2652 0-0.48076 0.21556-0.48076 0.4811v5.0313c0 0.26554 0.21556 0.48144 0.48076 0.48144h4.0147v6.2512s-0.90134 0.30702-3.3932 0.30702c-2.9403 0-7.0475-1.0741-7.0475-10.106 0-9.0335 4.2769-10.222 8.2919-10.222 3.4755 0 4.9732 0.612 5.9255 0.90678 0.29954 0.09146 0.5763-0.20638 0.5763-0.47192l1.1482-4.8613c0-0.12444-0.04216-0.27404-0.1836-0.3757-0.38726-0.27608-2.7475-1.597-8.7108-1.597-6.8704 0-13.917 2.923-13.917 16.973 0 14.051 8.0682 16.145 14.867 16.145 5.6294 0 9.0443-2.4055 9.0443-2.4055 0.14076-0.07752 0.15606-0.27438 0.15606-0.36448v-15.692c0-0.26554-0.21522-0.4811-0.48076-0.4811" fill="#100F0F" mask="url(#d)"/>
                </g>
                <path d="m76.621 2.0235c0-0.26758-0.21216-0.48382-0.4777-0.48382h-5.7943c-0.26486 0-0.47974 0.21624-0.47974 0.48382 0 0.00136 0.00136 11.198 0.00136 11.198h-9.0318v-11.198c0-0.26758-0.21318-0.48382-0.47804-0.48382h-5.7943c-0.2635 0-0.47838 0.21624-0.47838 0.48382v30.321c0 0.26724 0.21488 0.48518 0.47838 0.48518h5.7943c0.26486 0 0.47804-0.21794 0.47804-0.48518v-12.969h9.0318s-0.01564 12.968-0.01564 12.969c0 0.26724 0.21488 0.48518 0.48008 0.48518h5.8079c0.2652 0 0.47736-0.21794 0.47804-0.48518v-30.321z" fill="#100F0F"/>
                <path d="m34.521 6.0022c0-2.0866-1.6728-3.7723-3.7366-3.7723-2.0618 0-3.7356 1.6857-3.7356 3.7723 0 2.0842 1.6738 3.775 3.7356 3.775 2.0638 0 3.7366-1.6908 3.7366-3.775" fill="#100F0F"/>
                <path d="m34.107 25.948v-13.996c0-0.26554-0.2142-0.4828-0.4794-0.4828h-5.7759c-0.2652 0-0.50218 0.27336-0.50218 0.5389v20.052c0 0.58922 0.3672 0.76466 0.84252 0.76466h5.204c0.57086 0 0.71094-0.2805 0.71094-0.77418v-6.1027z" fill="#100F0F"/>
                <path d="m98.642 11.515h-5.7497c-0.26384 0-0.47838 0.21726-0.47838 0.48484v14.867s-1.461 1.069-3.5343 1.069c-2.0733 0-2.6234-0.94078-2.6234-2.9709v-12.965c0-0.26758-0.2142-0.48484-0.47804-0.48484h-5.8358c-0.26316 0-0.47906 0.21726-0.47906 0.48484v13.946c0 6.0299 3.3606 7.5052 7.9835 7.5052 3.793 0 6.851-2.0954 6.851-2.0954s0.14518 1.1043 0.21148 1.2352c0.06562 0.13056 0.23732 0.26248 0.42296 0.26248l3.7125-0.01632c0.26316 0 0.47906-0.2176 0.47906-0.48416l-0.00204-20.353c0-0.26758-0.21488-0.48484-0.47974-0.48484" fill="#100F0F"/>
                <g transform="translate(102 1.498)">
                    <mask id="c" fill="white">
                        <use xlink:href="#a"/>
                    </mask>
                    <path d="m10.09 26.419c-1.9944-0.06086-3.3473-0.9656-3.3473-0.9656v-9.6019s1.3345-0.81804 2.9719-0.96424c2.0706-0.1853 4.0657 0.43996 4.0657 5.3795 0 5.2085-0.90032 6.2366-3.6904 6.1523m2.2678-17.083c-3.2657 0-5.4869 1.4572-5.4869 1.4572v-10.267c0-0.26758-0.2142-0.48382-0.47804-0.48382h-5.8109c-0.26418 0-0.47872 0.21624-0.47872 0.48382v30.321c0 0.26758 0.21454 0.48518 0.47974 0.48518h4.0314c0.18156 0 0.31892-0.09384 0.42058-0.25772 0.1003-0.16286 0.2448-1.3977 0.2448-1.3977s2.3759 2.2515 6.8738 2.2515c5.2809 0 8.3093-2.6785 8.3093-12.024s-4.8368-10.567-8.1049-10.567" fill="#100F0F" mask="url(#c)"/>
                </g>
                <path d="m50.76 11.466h-4.3466s-0.00646-5.7409-0.00646-5.7423c0-0.21726-0.11186-0.32606-0.36346-0.32606h-5.9228c-0.23018 0-0.35394 0.10166-0.35394 0.323v5.9337s-2.9682 0.71638-3.1691 0.77452c-0.19958 0.0578-0.3468 0.24208-0.3468 0.46206v3.7288c0 0.26792 0.2142 0.4845 0.47906 0.4845h3.0369v8.9706c0 6.6626 4.674 7.3171 7.8275 7.3171 1.4409 0 3.1647-0.46274 3.4493-0.5678 0.17204-0.06324 0.27234-0.2414 0.27234-0.43452l0.00442-4.1021c0-0.26758-0.22576-0.48416-0.48008-0.48416-0.2533 0-0.90134 0.10336-1.5684 0.10336-2.1349 0-2.8584-0.9928-2.8584-2.278 0-1.2838-3.4e-4 -8.5245-3.4e-4 -8.5245h4.3469c0.26486 0 0.47974-0.21658 0.47974-0.4845v-4.6706c0-0.26758-0.21488-0.48314-0.47974-0.48314" fill="#100F0F"/>
            </g>
        </g>
    </g>
</svg>
